lib/logo_updates/nrk-logo-nrk-radio-with-bg.svg

<svg width="328" height="84" viewBox="0 0 328 84" fill="none" xmlns="http://www.w3.org/2000/svg">
<rect width="328" height="84" fill="#0A2343"/>
<path d="M20 63V21.0038H33.7802V63H20ZM52.5283 27.6877L60.4532 63H45.3721L35.9092 21.0038H44.3676C46.3072 20.9786 48.1892 21.6624 49.6607 22.9264C51.1347 24.1373 52.1473 25.8184 52.5283 27.6877ZM62.5233 63V21.0038H76.3035V63H62.5233ZM86.7116 36.9743C85.2267 36.9888 83.7656 36.6003 82.4839 35.8504C81.2193 35.1194 80.1688 34.0689 79.438 32.8041C78.6872 31.5222 78.2986 30.0607 78.3134 28.5751C78.2964 27.0986 78.6853 25.6458 79.438 24.3755C80.1766 23.1245 81.2259 22.0853 82.4839 21.3588C83.766 20.6098 85.2269 20.2213 86.7116 20.2348C88.1877 20.2189 89.6399 20.6078 90.9108 21.3588C92.1562 22.0917 93.1943 23.13 93.9271 24.3755C94.6789 25.6462 95.0677 27.0987 95.0517 28.5751C95.0655 30.0605 94.6769 31.5218 93.9271 32.8041C93.202 34.0633 92.1627 35.113 90.9108 35.8504C89.6398 36.6029 88.1866 36.9918 86.7097 36.9743H86.7116ZM97.1807 63V21.0038H110.962V63H97.1807ZM128.408 43.9538C128.447 43.9946 128.742 44.4776 129.295 45.403C129.848 46.3283 130.567 47.5114 131.454 48.952C132.341 50.392 133.277 51.9199 134.262 53.536C135.247 55.1521 136.174 56.6803 137.043 58.1202C137.908 59.5602 138.894 61.1867 140 63H124.859C123.912 61.4621 123.055 60.0721 122.286 58.83C121.517 57.5878 120.7 56.2471 119.833 54.8077C118.965 53.3698 118.107 51.9699 117.259 50.6081C116.41 49.2464 115.681 48.0536 115.071 47.0297C114.459 46.0051 114.035 45.3149 113.799 44.9594C113.214 44.0771 112.868 43.058 112.794 42.0019C112.853 40.9883 113.179 40.0084 113.74 39.1619C113.976 38.7676 114.41 38.0675 115.041 37.062C115.672 36.0564 116.411 34.8637 117.259 33.4835C118.106 32.1034 118.965 30.6936 119.833 29.2543C120.702 27.815 121.519 26.4643 122.286 25.2025C123.056 23.9419 123.914 22.5421 124.859 21.0029H140L128.289 40.1082C127.926 40.6755 127.722 41.3292 127.697 42.0019C127.736 42.7081 127.983 43.3871 128.406 43.9538H128.408Z" fill="white"/>
<path d="M176.591 45.6442C177.378 45.5238 178.154 45.3425 178.913 45.1021C180.451 44.6238 181.871 43.8282 183.082 42.7666C184.288 41.6895 185.237 40.356 185.861 38.864C186.562 37.148 186.904 35.3067 186.866 33.4535C186.893 31.2918 186.438 29.151 185.536 27.1865C184.603 25.2458 183.068 23.6589 181.16 22.6622C178.614 21.4254 175.798 20.8458 172.971 20.9767H156V62.9598H162.15V46.8761H171.196L181.663 62.9598H188.876L179.06 48.4145L176.591 45.6442ZM176.696 26.9194C177.92 27.3862 178.944 28.2646 179.592 29.4039C180.27 30.7279 180.595 32.2039 180.538 33.69C180.612 35.3349 180.212 36.9665 179.386 38.3909C178.604 39.6039 177.438 40.5198 176.075 40.9926C174.43 41.5581 172.699 41.8284 170.96 41.7909H162.15V26.1211H171.669C173.38 26.0641 175.086 26.3352 176.696 26.9194Z" fill="#8BB5EB"/>
<path d="M220.747 59.2354C220.315 59.2751 219.879 59.2098 219.478 59.0448C219.076 58.8799 218.721 58.6204 218.441 58.2884C217.893 57.341 217.665 56.2419 217.791 55.1545L217.909 42.9744C217.922 41.6971 217.763 40.4238 217.436 39.189C217.148 38.1065 216.668 37.0851 216.017 36.1735C215.359 35.2826 214.523 34.5377 213.563 33.9857C212.447 33.3521 211.24 32.8936 209.985 32.6265C208.451 32.295 206.884 32.1363 205.314 32.1535C204.068 32.1526 202.824 32.2313 201.589 32.389C200.421 32.5359 199.266 32.763 198.13 33.069C197.076 33.3552 196.04 33.701 195.025 34.1048L194.316 39.131C195.301 38.7762 196.238 38.4804 197.126 38.2439C198.013 38.0074 198.87 37.8104 199.697 37.6527C200.508 37.4975 201.327 37.3892 202.151 37.3284C202.958 37.268 203.756 37.238 204.545 37.2387C205.751 37.2132 206.955 37.3527 208.123 37.6527C208.975 37.8661 209.759 38.2935 210.399 38.8945C210.97 39.4793 211.377 40.2027 211.582 40.9935C211.834 41.9687 211.953 42.9735 211.937 43.9806L211.93 45.464L205.018 45.9319C202.654 45.998 200.325 46.5198 198.159 47.4684C196.538 48.1779 195.139 49.3117 194.109 50.7503C193.235 52.0305 192.771 53.5462 192.778 55.0963C192.767 56.5508 193.123 57.9845 193.813 59.265C194.536 60.5806 195.625 61.6587 196.947 62.3693C198.56 63.2084 200.363 63.616 202.18 63.5521C203.883 63.5913 205.578 63.3104 207.177 62.7242C208.559 62.1834 209.824 61.3803 210.902 60.359C211.311 59.9665 211.699 59.553 212.065 59.1202C212.18 59.7322 212.396 60.3209 212.705 60.8617C213.232 61.7672 214.043 62.4736 215.012 62.8719C216.082 63.302 217.228 63.5133 218.382 63.4929C218.737 63.4929 219.082 63.483 219.417 63.4633C219.746 63.4444 220.072 63.395 220.392 63.3156C220.708 63.2367 220.993 63.1675 221.25 63.1084C221.482 63.0568 221.709 62.9877 221.93 62.9015L222.58 58.9397C222.254 59.0519 221.917 59.1311 221.575 59.1762C221.301 59.2133 221.024 59.2331 220.747 59.2354ZM210.902 56.5746C210.261 57.0815 209.567 57.5177 208.832 57.8755C208.101 58.2317 207.326 58.4902 206.527 58.6442C205.699 58.8043 204.857 58.8835 204.013 58.8808C203.05 58.9082 202.091 58.7266 201.204 58.3485C200.483 58.0356 199.874 57.5094 199.46 56.8407C199.051 56.1319 198.846 55.3232 198.869 54.5049C198.812 53.5191 199.082 52.5423 199.637 51.7259C200.282 50.9751 201.154 50.4558 202.121 50.2476C203.632 49.892 205.183 49.733 206.734 49.7746H211.911L211.884 55.6441C211.584 55.9814 211.255 56.2934 210.902 56.5746Z" fill="#8BB5EB"/>
<path d="M248.719 33.5884C248.659 33.5647 248.603 33.536 248.542 33.5124C247.436 33.0961 246.299 32.7699 245.142 32.5367C243.788 32.2702 242.411 32.1418 241.032 32.1534C238.449 32.1376 235.908 32.8112 233.671 34.1047C231.363 35.4471 229.47 37.4014 228.202 39.7517C226.746 42.5286 226.033 45.6347 226.132 48.7684C226.064 51.4736 226.599 54.16 227.699 56.6327C228.658 58.7447 230.223 60.5246 232.194 61.7475C234.313 62.9952 236.741 63.6203 239.2 63.5511C240.708 63.5602 242.21 63.3611 243.664 62.9597C245.113 62.544 246.496 61.9269 247.774 61.1265C248.216 60.8535 248.661 60.5472 249.102 60.2269L249.844 62.9597H254.751V18.375L248.72 19.2029L248.719 33.5884ZM245.555 57.9038C244.207 58.4351 242.776 58.7258 241.327 58.7623C239.638 58.8115 237.965 58.4135 236.479 57.6084C235.096 56.7908 234.017 55.5454 233.404 54.0604C232.637 52.155 232.274 50.1107 232.34 48.0576C232.271 45.9548 232.675 43.8633 233.522 41.9376C234.245 40.375 235.432 39.0739 236.922 38.2123C238.544 37.3297 240.37 36.8911 242.216 36.941C243.165 36.9388 244.114 37.0082 245.053 37.1481C245.985 37.2924 246.904 37.5101 247.802 37.7994C248.091 37.8911 248.409 38.0134 248.719 38.1257V56.3498C247.713 56.9632 246.653 57.4833 245.553 57.9038H245.555Z" fill="#8BB5EB"/>
<path d="M263.972 62.9597H270.003V32.2117L263.972 33.0985V62.9597Z" fill="#8BB5EB"/>
<path d="M269.146 19.8237C268.532 19.4486 267.825 19.2538 267.106 19.2619C266.377 19.2562 265.662 19.4505 265.036 19.8237C264.42 20.1848 263.902 20.6926 263.528 21.3019C263.153 21.9158 262.959 22.6228 262.967 23.342C262.961 24.0703 263.155 24.7861 263.528 25.4115C263.89 26.0304 264.41 26.5409 265.036 26.8897C265.668 27.2449 266.381 27.4284 267.106 27.422C267.821 27.4307 268.526 27.2469 269.146 26.8897C269.754 26.5382 270.255 26.027 270.594 25.4115C270.95 24.7801 271.133 24.0666 271.127 23.342C271.135 22.6266 270.951 21.922 270.594 21.3019C270.243 20.6955 269.745 20.1871 269.146 19.8237Z" fill="#8BB5EB"/>
<path d="M305.954 39.3962C304.776 37.1355 302.955 35.2735 300.722 34.0447C298.258 32.7363 295.498 32.085 292.709 32.1535C289.895 32.089 287.112 32.7616 284.637 34.1048C282.353 35.3831 280.485 37.2919 279.256 39.6031C277.922 42.1966 277.261 45.084 277.334 47.9997C277.259 50.8927 277.877 53.7617 279.138 56.3667C280.27 58.6409 282.077 60.51 284.312 61.719C286.717 62.9788 289.402 63.6092 292.117 63.5512C294.959 63.6077 297.768 62.9357 300.277 61.5996C302.62 60.322 304.541 58.391 305.807 56.0414C307.18 53.4176 307.862 50.4872 307.788 47.5267C307.855 44.7069 307.225 41.9141 305.954 39.3962ZM300.366 53.8536C299.702 55.3903 298.576 56.682 297.144 57.5493C295.706 58.3729 294.071 58.792 292.414 58.7624C290.789 58.8027 289.186 58.3711 287.801 57.5197C286.431 56.6091 285.361 55.3132 284.727 53.7954C283.922 51.8475 283.54 49.7513 283.604 47.6448C283.534 45.5957 283.917 43.5564 284.727 41.6725C285.39 40.1921 286.495 38.953 287.89 38.1248C289.382 37.3038 291.066 36.8956 292.768 36.9423C294.097 36.9091 295.418 37.1611 296.642 37.6814C297.713 38.1649 298.648 38.9063 299.363 39.8396C300.124 40.8544 300.677 42.0104 300.988 43.2406C301.358 44.6789 301.537 46.1597 301.52 47.6448C301.589 49.7735 301.195 51.8919 300.366 53.8536Z" fill="#8BB5EB"/>
</svg>

<svg xmlns="http://www.w3.org/2000/svg" viewBox="0 0 328 84"><path fill="#0A2343" d="M0 0h328v84H0z"/><path fill="#fff" d="M20 63V21.004h13.78V63H20Zm32.528-35.312L60.453 63h-15.08l-9.464-41.996h8.459a7.965 7.965 0 0 1 5.293 1.922 8.31 8.31 0 0 1 2.867 4.762ZM62.523 63V21.004h13.78V63h-13.78Zm24.189-26.026a8.213 8.213 0 0 1-4.228-1.124 8.336 8.336 0 0 1-3.046-3.046 8.206 8.206 0 0 1-1.125-4.229 8.056 8.056 0 0 1 1.125-4.2 8.437 8.437 0 0 1 3.046-3.016 8.233 8.233 0 0 1 4.228-1.124 8.083 8.083 0 0 1 4.199 1.124 8.504 8.504 0 0 1 3.016 3.016 8.075 8.075 0 0 1 1.125 4.2 8.226 8.226 0 0 1-1.125 4.23 8.4 8.4 0 0 1-3.016 3.045 8.059 8.059 0 0 1-4.201 1.124h.002ZM97.18 63V21.004h13.781V63H97.181Zm31.227-19.046c.039.04.334.524.887 1.449.553.925 1.272 2.108 2.159 3.549a1143.28 1143.28 0 0 1 5.589 9.168A854.89 854.89 0 0 0 140 63h-15.141c-.947-1.538-1.804-2.928-2.573-4.17a388.795 388.795 0 0 1-2.453-4.022 355.984 355.984 0 0 0-2.574-4.2 210.645 210.645 0 0 1-2.188-3.578 62.13 62.13 0 0 0-1.272-2.07 6.127 6.127 0 0 1-1.005-2.958 5.745 5.745 0 0 1 .946-2.84c.236-.394.67-1.094 1.301-2.1.631-1.006 1.37-2.198 2.218-3.578.847-1.38 1.706-2.79 2.574-4.23.869-1.439 1.686-2.79 2.453-4.052.77-1.26 1.628-2.66 2.573-4.2H140l-11.711 19.106a3.773 3.773 0 0 0-.592 1.894c.039.706.286 1.385.709 1.952h.002Z"/><path fill="#8BB5EB" d="M176.591 45.644c.787-.12 1.563-.301 2.322-.542a11.508 11.508 0 0 0 4.169-2.335 10.839 10.839 0 0 0 2.779-3.903 13.571 13.571 0 0 0 1.005-5.41 14.584 14.584 0 0 0-1.33-6.268 9.986 9.986 0 0 0-4.376-4.524 16.95 16.95 0 0 0-8.189-1.685H156V62.96h6.15V46.876h9.046l10.467 16.084h7.213l-9.816-14.546-2.469-2.77Zm.105-18.725a5.647 5.647 0 0 1 2.896 2.485 8.673 8.673 0 0 1 .946 4.286 8.6 8.6 0 0 1-1.152 4.7 6.458 6.458 0 0 1-3.311 2.603 14.753 14.753 0 0 1-5.115.798h-8.81V26.12h9.519a13.426 13.426 0 0 1 5.027.798ZM220.747 59.235a2.69 2.69 0 0 1-2.306-.947 5.09 5.09 0 0 1-.65-3.133l.118-12.18a14.222 14.222 0 0 0-.473-3.786 9.303 9.303 0 0 0-1.419-3.016 8.022 8.022 0 0 0-2.454-2.187 12.531 12.531 0 0 0-3.578-1.36 21.025 21.025 0 0 0-4.671-.472c-1.246-.001-2.49.077-3.725.235a25.556 25.556 0 0 0-3.459.68c-1.054.286-2.09.632-3.105 1.036l-.709 5.026c.985-.355 1.922-.65 2.81-.887a36.615 36.615 0 0 1 2.571-.591c.811-.155 1.63-.264 2.454-.325.807-.06 1.605-.09 2.394-.09 1.206-.025 2.41.115 3.578.415.852.213 1.636.64 2.276 1.242a4.686 4.686 0 0 1 1.183 2.098c.252.976.371 1.98.355 2.988l-.007 1.483-6.912.468a18.379 18.379 0 0 0-6.859 1.536 9.827 9.827 0 0 0-4.05 3.282 7.647 7.647 0 0 0-1.331 4.346 8.65 8.65 0 0 0 1.035 4.169 7.778 7.778 0 0 0 3.134 3.104 10.537 10.537 0 0 0 5.233 1.183c1.703.04 3.398-.242 4.997-.828a11.52 11.52 0 0 0 3.725-2.365c.409-.392.797-.806 1.163-1.239.115.612.331 1.2.64 1.742a4.765 4.765 0 0 0 2.307 2.01c1.07.43 2.216.641 3.37.62.355 0 .7-.009 1.035-.029.329-.019.655-.068.975-.147.316-.08.601-.149.858-.208.232-.051.459-.12.68-.206l.65-3.962a5.164 5.164 0 0 1-1.005.236 6.583 6.583 0 0 1-.828.06Zm-9.845-2.66c-.641.506-1.335.943-2.07 1.3a9.265 9.265 0 0 1-2.305.77c-.828.16-1.67.238-2.514.236a6.682 6.682 0 0 1-2.809-.532 3.858 3.858 0 0 1-1.744-1.508 4.426 4.426 0 0 1-.591-2.336 4.483 4.483 0 0 1 .768-2.78 4.533 4.533 0 0 1 2.484-1.477 18.03 18.03 0 0 1 4.613-.473h5.177l-.027 5.87c-.3.336-.629.648-.982.93ZM248.719 33.588c-.06-.023-.116-.052-.177-.076a21.98 21.98 0 0 0-3.4-.975 20.394 20.394 0 0 0-4.11-.384 14.528 14.528 0 0 0-7.361 1.952 14.495 14.495 0 0 0-5.469 5.647 18.18 18.18 0 0 0-2.07 9.016 18.221 18.221 0 0 0 1.567 7.865 11.726 11.726 0 0 0 4.495 5.114 13.082 13.082 0 0 0 7.006 1.804c1.508.01 3.01-.19 4.464-.591a16.115 16.115 0 0 0 4.11-1.834c.442-.273.887-.579 1.328-.9l.742 2.734h4.907V18.375l-6.031.828-.001 14.385Zm-3.164 24.316a12.38 12.38 0 0 1-4.228.858 9.592 9.592 0 0 1-4.848-1.154 7.402 7.402 0 0 1-3.075-3.548 14.802 14.802 0 0 1-1.064-6.002 14.056 14.056 0 0 1 1.182-6.12 8.355 8.355 0 0 1 3.4-3.726 10.483 10.483 0 0 1 5.294-1.271 18.96 18.96 0 0 1 2.837.207c.932.144 1.851.362 2.749.651.289.092.607.214.917.327V56.35a19.362 19.362 0 0 1-3.166 1.554h.002ZM263.972 62.96h6.031V32.212l-6.031.886V62.96ZM269.146 19.824a3.83 3.83 0 0 0-2.04-.562 3.98 3.98 0 0 0-2.07.562 4.353 4.353 0 0 0-1.508 1.478 3.831 3.831 0 0 0-.561 2.04 3.976 3.976 0 0 0 .561 2.07c.362.618.882 1.129 1.508 1.478a4.148 4.148 0 0 0 2.07.532 3.99 3.99 0 0 0 2.04-.532 3.857 3.857 0 0 0 1.448-1.479 4.143 4.143 0 0 0 .533-2.069 4 4 0 0 0-.533-2.04 4.176 4.176 0 0 0-1.448-1.478ZM305.954 39.396a12.928 12.928 0 0 0-5.232-5.351 16.236 16.236 0 0 0-8.013-1.892 16.148 16.148 0 0 0-8.072 1.952 13.64 13.64 0 0 0-5.381 5.498A17.405 17.405 0 0 0 277.334 48a18.125 18.125 0 0 0 1.804 8.367 12.334 12.334 0 0 0 5.174 5.352 16.08 16.08 0 0 0 7.805 1.832 16.656 16.656 0 0 0 8.16-1.951 13.77 13.77 0 0 0 5.53-5.559 17.426 17.426 0 0 0 1.981-8.514 17.14 17.14 0 0 0-1.834-8.13Zm-5.588 14.458a8.056 8.056 0 0 1-3.222 3.695 9.188 9.188 0 0 1-4.73 1.213 8.412 8.412 0 0 1-4.613-1.242 8.326 8.326 0 0 1-3.074-3.725 14.917 14.917 0 0 1-1.123-6.15c-.07-2.05.313-4.089 1.123-5.973a7.865 7.865 0 0 1 3.163-3.547 9.574 9.574 0 0 1 4.878-1.183 9.309 9.309 0 0 1 3.874.74 7.116 7.116 0 0 1 2.721 2.158 9.586 9.586 0 0 1 1.625 3.4c.37 1.439.549 2.92.532 4.405a14.725 14.725 0 0 1-1.154 6.209Z"/></svg>
